images/26350.svg

<?xml version="1.0" encoding="UTF-8"?>
<svg xmlns="http://www.w3.org/2000/svg" xmlns:xlink="http://www.w3.org/1999/xlink" width="300pt" height="300pt" viewBox="0 0 300 300" version="1.1">
<defs>
<g>
<symbol overflow="visible" id="glyph0-0">
<path style="stroke:none;" d="M 0.453125 1.59375 L 0.453125 -6.34375 L 4.953125 -6.34375 L 4.953125 1.59375 Z M 0.953125 1.09375 L 4.453125 1.09375 L 4.453125 -5.84375 L 0.953125 -5.84375 Z M 0.953125 1.09375 "/>
</symbol>
<symbol overflow="visible" id="glyph0-1">
<path style="stroke:none;" d="M 0.890625 -6.5625 L 2.078125 -6.5625 L 4.984375 -1.078125 L 4.984375 -6.5625 L 5.84375 -6.5625 L 5.84375 0 L 4.65625 0 L 1.75 -5.484375 L 1.75 0 L 0.890625 0 Z M 0.890625 -6.5625 "/>
</symbol>
<symbol overflow="visible" id="glyph0-2">
<path style="stroke:none;" d="M 0.890625 -6.5625 L 1.765625 -6.5625 L 1.765625 -3.875 L 5 -3.875 L 5 -6.5625 L 5.890625 -6.5625 L 5.890625 0 L 5 0 L 5 -3.125 L 1.765625 -3.125 L 1.765625 0 L 0.890625 0 Z M 0.890625 -6.5625 "/>
</symbol>
<symbol overflow="visible" id="glyph0-3">
<path style="stroke:none;" d="M 3.546875 -5.953125 C 2.898438 -5.953125 2.382812 -5.710938 2 -5.234375 C 1.625 -4.753906 1.4375 -4.101562 1.4375 -3.28125 C 1.4375 -2.445312 1.625 -1.789062 2 -1.3125 C 2.382812 -0.832031 2.898438 -0.59375 3.546875 -0.59375 C 4.191406 -0.59375 4.703125 -0.832031 5.078125 -1.3125 C 5.453125 -1.789062 5.640625 -2.445312 5.640625 -3.28125 C 5.640625 -4.101562 5.453125 -4.753906 5.078125 -5.234375 C 4.703125 -5.710938 4.191406 -5.953125 3.546875 -5.953125 Z M 3.546875 -6.6875 C 4.460938 -6.6875 5.195312 -6.375 5.75 -5.75 C 6.300781 -5.132812 6.578125 -4.3125 6.578125 -3.28125 C 6.578125 -2.238281 6.300781 -1.410156 5.75 -0.796875 C 5.195312 -0.179688 4.460938 0.125 3.546875 0.125 C 2.617188 0.125 1.878906 -0.179688 1.328125 -0.796875 C 0.773438 -1.410156 0.5 -2.238281 0.5 -3.28125 C 0.5 -4.3125 0.773438 -5.132812 1.328125 -5.75 C 1.878906 -6.375 2.617188 -6.6875 3.546875 -6.6875 Z M 3.546875 -6.6875 "/>
</symbol>
<symbol overflow="visible" id="glyph0-4">
<path style="stroke:none;" d="M 4.8125 -6.34375 L 4.8125 -5.484375 C 4.476562 -5.640625 4.160156 -5.753906 3.859375 -5.828125 C 3.566406 -5.910156 3.28125 -5.953125 3 -5.953125 C 2.507812 -5.953125 2.132812 -5.859375 1.875 -5.671875 C 1.613281 -5.484375 1.484375 -5.21875 1.484375 -4.875 C 1.484375 -4.582031 1.570312 -4.363281 1.75 -4.21875 C 1.925781 -4.070312 2.253906 -3.953125 2.734375 -3.859375 L 3.28125 -3.75 C 3.9375 -3.625 4.421875 -3.398438 4.734375 -3.078125 C 5.054688 -2.765625 5.21875 -2.34375 5.21875 -1.8125 C 5.21875 -1.175781 5.003906 -0.691406 4.578125 -0.359375 C 4.148438 -0.0351562 3.523438 0.125 2.703125 0.125 C 2.390625 0.125 2.054688 0.0859375 1.703125 0.015625 C 1.359375 -0.046875 1 -0.148438 0.625 -0.296875 L 0.625 -1.203125 C 0.976562 -1.003906 1.328125 -0.851562 1.671875 -0.75 C 2.023438 -0.644531 2.367188 -0.59375 2.703125 -0.59375 C 3.203125 -0.59375 3.585938 -0.691406 3.859375 -0.890625 C 4.140625 -1.085938 4.28125 -1.375 4.28125 -1.75 C 4.28125 -2.070312 4.179688 -2.320312 3.984375 -2.5 C 3.785156 -2.675781 3.460938 -2.8125 3.015625 -2.90625 L 2.46875 -3.015625 C 1.8125 -3.148438 1.332031 -3.359375 1.03125 -3.640625 C 0.738281 -3.921875 0.59375 -4.3125 0.59375 -4.8125 C 0.59375 -5.382812 0.796875 -5.835938 1.203125 -6.171875 C 1.609375 -6.515625 2.171875 -6.6875 2.890625 -6.6875 C 3.203125 -6.6875 3.515625 -6.65625 3.828125 -6.59375 C 4.148438 -6.539062 4.476562 -6.457031 4.8125 -6.34375 Z M 4.8125 -6.34375 "/>
</symbol>
</g>
</defs>
<g id="surface3129">
<rect x="0" y="0" width="300" height="300" style="fill:rgb(100%,100%,100%);fill-opacity:1;stroke:none;"/>
<path style="fill:none;stroke-width:1.2;stroke-linecap:butt;stroke-linejoin:miter;stroke:rgb(0%,0%,0%);stroke-opacity:1;stroke-miterlimit:10;" d="M 254.113281 149.574219 L 239.496094 162.613281 "/>
<path style="fill:none;stroke-width:1.2;stroke-linecap:butt;stroke-linejoin:miter;stroke:rgb(0%,0%,0%);stroke-opacity:1;stroke-miterlimit:10;" d="M 249.585938 147.4375 L 237.890625 157.867188 "/>
<path style="fill:none;stroke-width:1.2;stroke-linecap:butt;stroke-linejoin:miter;stroke:rgb(0%,0%,0%);stroke-opacity:1;stroke-miterlimit:10;" d="M 250.132812 130.394531 L 254.113281 149.574219 "/>
<path style="fill:none;stroke-width:1.2;stroke-linecap:butt;stroke-linejoin:miter;stroke:rgb(0%,0%,0%);stroke-opacity:1;stroke-miterlimit:10;" d="M 239.496094 162.613281 L 220.894531 156.472656 "/>
<path style="fill:none;stroke-width:1.2;stroke-linecap:butt;stroke-linejoin:miter;stroke:rgb(0%,0%,0%);stroke-opacity:1;stroke-miterlimit:10;" d="M 220.894531 156.472656 L 216.914062 137.292969 "/>
<path style="fill:none;stroke-width:1.2;stroke-linecap:butt;stroke-linejoin:miter;stroke:rgb(0%,0%,0%);stroke-opacity:1;stroke-miterlimit:10;" d="M 225.011719 153.617188 L 221.824219 138.273438 "/>
<path style="fill:none;stroke-width:1.2;stroke-linecap:butt;stroke-linejoin:miter;stroke:rgb(0%,0%,0%);stroke-opacity:1;stroke-miterlimit:10;" d="M 216.914062 137.292969 L 207.613281 134.222656 "/>
<path style="fill:none;stroke-width:1.2;stroke-linecap:butt;stroke-linejoin:miter;stroke:rgb(0%,0%,100%);stroke-opacity:1;stroke-miterlimit:10;" d="M 207.613281 134.222656 L 198.3125 131.152344 "/>
<path style="fill:none;stroke-width:1.2;stroke-linecap:butt;stroke-linejoin:miter;stroke:rgb(0%,0%,0%);stroke-opacity:1;stroke-miterlimit:10;" d="M 216.914062 137.292969 L 231.53125 124.253906 "/>
<path style="fill:none;stroke-width:1.2;stroke-linecap:butt;stroke-linejoin:miter;stroke:rgb(0%,0%,100%);stroke-opacity:1;stroke-miterlimit:10;" d="M 198.3125 131.152344 L 191.003906 137.671875 "/>
<path style="fill:none;stroke-width:1.2;stroke-linecap:butt;stroke-linejoin:miter;stroke:rgb(0%,0%,0%);stroke-opacity:1;stroke-miterlimit:10;" d="M 191.003906 137.671875 L 183.695312 144.191406 "/>
<path style=" stroke:none;fill-rule:nonzero;fill:rgb(100%,100%,100%);fill-opacity:1;" d="M 191.3125 125.652344 L 205.3125 125.652344 L 205.3125 136.652344 L 191.3125 136.652344 Z M 191.3125 125.652344 "/>
<g style="fill:rgb(0%,0%,100%);fill-opacity:1;">
  <use xlink:href="#glyph0-1" x="191.3125" y="134.31543"/>
  <use xlink:href="#glyph0-2" x="198.290039" y="134.31543"/>
</g>
<path style="fill:none;stroke-width:1.2;stroke-linecap:butt;stroke-linejoin:miter;stroke:rgb(0%,0%,0%);stroke-opacity:1;stroke-miterlimit:10;" d="M 183.695312 144.191406 L 174.394531 141.121094 "/>
<path style="fill:none;stroke-width:1.2;stroke-linecap:butt;stroke-linejoin:miter;stroke:rgb(0%,0%,100%);stroke-opacity:1;stroke-miterlimit:10;" d="M 174.394531 141.121094 L 165.09375 138.050781 "/>
<path style="fill:none;stroke-width:1.2;stroke-linecap:butt;stroke-linejoin:miter;stroke:rgb(0%,0%,0%);stroke-opacity:1;stroke-miterlimit:10;" d="M 181.4375 144.660156 L 183.429688 154.25 "/>
<path style="fill:none;stroke-width:1.2;stroke-linecap:butt;stroke-linejoin:miter;stroke:rgb(80%,80%,0%);stroke-opacity:1;stroke-miterlimit:10;" d="M 183.429688 154.25 L 185.421875 163.839844 "/>
<path style="fill:none;stroke-width:1.2;stroke-linecap:butt;stroke-linejoin:miter;stroke:rgb(0%,0%,0%);stroke-opacity:1;stroke-miterlimit:10;" d="M 185.949219 143.722656 L 187.941406 153.3125 "/>
<path style="fill:none;stroke-width:1.2;stroke-linecap:butt;stroke-linejoin:miter;stroke:rgb(80%,80%,0%);stroke-opacity:1;stroke-miterlimit:10;" d="M 187.941406 153.3125 L 189.933594 162.902344 "/>
<path style=" stroke:none;fill-rule:nonzero;fill:rgb(0%,0%,0%);fill-opacity:1;" d="M 150.476562 151.089844 L 167.394531 140.628906 L 162.792969 135.472656 Z M 150.476562 151.089844 "/>
<path style=" stroke:none;fill-rule:nonzero;fill:rgb(100%,100%,100%);fill-opacity:1;" d="M 158.09375 132.550781 L 172.09375 132.550781 L 172.09375 143.550781 L 158.09375 143.550781 Z M 158.09375 132.550781 "/>
<g style="fill:rgb(0%,0%,100%);fill-opacity:1;">
  <use xlink:href="#glyph0-1" x="158.09375" y="141.213867"/>
  <use xlink:href="#glyph0-2" x="165.071289" y="141.213867"/>
</g>
<path style="fill:none;stroke-width:1.2;stroke-linecap:butt;stroke-linejoin:miter;stroke:rgb(0%,0%,0%);stroke-opacity:1;stroke-miterlimit:10;" d="M 150.476562 151.089844 L 155.878906 169.917969 "/>
<path style="fill:none;stroke-width:1.2;stroke-linecap:butt;stroke-linejoin:miter;stroke:rgb(0%,0%,0%);stroke-opacity:1;stroke-miterlimit:10;" d="M 132.386719 143.578125 L 150.476562 151.089844 "/>
<path style="fill:none;stroke-width:1.2;stroke-linecap:butt;stroke-linejoin:miter;stroke:rgb(0%,0%,0%);stroke-opacity:1;stroke-miterlimit:10;" d="M 155.878906 169.917969 L 144.53125 185.882812 "/>
<path style="fill:none;stroke-width:1.2;stroke-linecap:butt;stroke-linejoin:miter;stroke:rgb(0%,0%,0%);stroke-opacity:1;stroke-miterlimit:10;" d="M 144.53125 185.882812 L 124.972656 186.960938 "/>
<path style="fill:none;stroke-width:1.2;stroke-linecap:butt;stroke-linejoin:miter;stroke:rgb(0%,0%,0%);stroke-opacity:1;stroke-miterlimit:10;" d="M 124.972656 186.960938 L 111.933594 172.34375 "/>
<path style="fill:none;stroke-width:1.2;stroke-linecap:butt;stroke-linejoin:miter;stroke:rgb(0%,0%,0%);stroke-opacity:1;stroke-miterlimit:10;" d="M 111.933594 172.34375 L 113.582031 162.691406 "/>
<path style="fill:none;stroke-width:1.2;stroke-linecap:butt;stroke-linejoin:miter;stroke:rgb(0%,0%,100%);stroke-opacity:1;stroke-miterlimit:10;" d="M 113.582031 162.691406 L 115.234375 153.035156 "/>
<path style="fill:none;stroke-width:1.2;stroke-linecap:butt;stroke-linejoin:miter;stroke:rgb(0%,0%,100%);stroke-opacity:1;stroke-miterlimit:10;" d="M 115.234375 153.035156 L 107.25 147.359375 "/>
<path style="fill:none;stroke-width:1.2;stroke-linecap:butt;stroke-linejoin:miter;stroke:rgb(0%,0%,0%);stroke-opacity:1;stroke-miterlimit:10;" d="M 107.25 147.359375 L 99.269531 141.6875 "/>
<path style="fill:none;stroke-width:1.2;stroke-linecap:butt;stroke-linejoin:miter;stroke:rgb(0%,0%,100%);stroke-opacity:1;stroke-miterlimit:10;" d="M 115.234375 153.035156 L 123.808594 148.304688 "/>
<path style="fill:none;stroke-width:1.2;stroke-linecap:butt;stroke-linejoin:miter;stroke:rgb(0%,0%,0%);stroke-opacity:1;stroke-miterlimit:10;" d="M 123.808594 148.304688 L 132.386719 143.578125 "/>
<path style=" stroke:none;fill-rule:nonzero;fill:rgb(100%,100%,100%);fill-opacity:1;" d="M 112.234375 147.535156 L 119.234375 147.535156 L 119.234375 158.535156 L 112.234375 158.535156 Z M 112.234375 147.535156 "/>
<g style="fill:rgb(0%,0%,100%);fill-opacity:1;">
  <use xlink:href="#glyph0-1" x="112.234375" y="156.198242"/>
</g>
<path style="fill:none;stroke-width:1.2;stroke-linecap:butt;stroke-linejoin:miter;stroke:rgb(0%,0%,0%);stroke-opacity:1;stroke-miterlimit:10;" d="M 99.269531 141.6875 L 81.457031 149.835938 "/>
<path style="fill:none;stroke-width:1.2;stroke-linecap:butt;stroke-linejoin:miter;stroke:rgb(0%,0%,0%);stroke-opacity:1;stroke-miterlimit:10;" d="M 81.457031 149.835938 L 73.472656 144.160156 "/>
<path style="fill:none;stroke-width:1.2;stroke-linecap:butt;stroke-linejoin:miter;stroke:rgb(0%,0%,100%);stroke-opacity:1;stroke-miterlimit:10;" d="M 73.472656 144.160156 L 65.492188 138.488281 "/>
<path style="fill:none;stroke-width:1.2;stroke-linecap:butt;stroke-linejoin:miter;stroke:rgb(0%,0%,0%);stroke-opacity:1;stroke-miterlimit:10;" d="M 79.164062 149.617188 L 78.238281 159.371094 "/>
<path style="fill:none;stroke-width:1.2;stroke-linecap:butt;stroke-linejoin:miter;stroke:rgb(100%,0%,0%);stroke-opacity:1;stroke-miterlimit:10;" d="M 78.238281 159.371094 L 77.316406 169.121094 "/>
<path style="fill:none;stroke-width:1.2;stroke-linecap:butt;stroke-linejoin:miter;stroke:rgb(0%,0%,0%);stroke-opacity:1;stroke-miterlimit:10;" d="M 83.75 150.054688 L 82.828125 159.804688 "/>
<path style="fill:none;stroke-width:1.2;stroke-linecap:butt;stroke-linejoin:miter;stroke:rgb(100%,0%,0%);stroke-opacity:1;stroke-miterlimit:10;" d="M 82.828125 159.804688 L 81.902344 169.554688 "/>
<path style="fill:none;stroke-width:1.2;stroke-linecap:butt;stroke-linejoin:miter;stroke:rgb(0%,0%,100%);stroke-opacity:1;stroke-miterlimit:10;" d="M 65.492188 138.488281 L 56.207031 141.609375 "/>
<path style="fill:none;stroke-width:1.2;stroke-linecap:butt;stroke-linejoin:miter;stroke:rgb(0%,0%,0%);stroke-opacity:1;stroke-miterlimit:10;" d="M 56.207031 141.609375 L 46.925781 144.730469 "/>
<path style="fill:none;stroke-width:1.2;stroke-linecap:butt;stroke-linejoin:miter;stroke:rgb(0%,0%,100%);stroke-opacity:1;stroke-miterlimit:10;" d="M 65.492188 138.488281 L 65.390625 128.691406 "/>
<path style="fill:none;stroke-width:1.2;stroke-linecap:butt;stroke-linejoin:miter;stroke:rgb(0%,0%,0%);stroke-opacity:1;stroke-miterlimit:10;" d="M 65.390625 128.691406 L 65.289062 118.898438 "/>
<path style=" stroke:none;fill-rule:nonzero;fill:rgb(100%,100%,100%);fill-opacity:1;" d="M 62.492188 132.988281 L 69.492188 132.988281 L 69.492188 143.988281 L 62.492188 143.988281 Z M 62.492188 132.988281 "/>
<g style="fill:rgb(0%,0%,100%);fill-opacity:1;">
  <use xlink:href="#glyph0-1" x="62.492188" y="141.651367"/>
</g>
<path style="fill:none;stroke-width:1.2;stroke-linecap:butt;stroke-linejoin:miter;stroke:rgb(0%,0%,0%);stroke-opacity:1;stroke-miterlimit:10;" d="M 46.925781 144.730469 L 35.25 129.003906 "/>
<path style="fill:none;stroke-width:1.2;stroke-linecap:butt;stroke-linejoin:miter;stroke:rgb(0%,0%,0%);stroke-opacity:1;stroke-miterlimit:10;" d="M 35.25 129.003906 L 46.601562 113.039062 "/>
<path style="fill:none;stroke-width:1.2;stroke-linecap:butt;stroke-linejoin:miter;stroke:rgb(0%,0%,0%);stroke-opacity:1;stroke-miterlimit:10;" d="M 65.289062 118.898438 L 46.601562 113.039062 "/>
<path style=" stroke:none;fill-rule:nonzero;fill:rgb(100%,100%,100%);fill-opacity:1;" d="M 75.609375 163.835938 L 83.609375 163.835938 L 83.609375 174.835938 L 75.609375 174.835938 Z M 75.609375 163.835938 "/>
<g style="fill:rgb(100%,0%,0%);fill-opacity:1;">
  <use xlink:href="#glyph0-3" x="75.609375" y="172.499023"/>
</g>
<path style="fill:none;stroke-width:1.2;stroke-linecap:butt;stroke-linejoin:miter;stroke:rgb(0%,0%,0%);stroke-opacity:1;stroke-miterlimit:10;" d="M 134.6875 143.449219 L 134.148438 133.671875 "/>
<path style="fill:none;stroke-width:1.2;stroke-linecap:butt;stroke-linejoin:miter;stroke:rgb(100%,0%,0%);stroke-opacity:1;stroke-miterlimit:10;" d="M 134.148438 133.671875 L 133.605469 123.890625 "/>
<path style="fill:none;stroke-width:1.2;stroke-linecap:butt;stroke-linejoin:miter;stroke:rgb(0%,0%,0%);stroke-opacity:1;stroke-miterlimit:10;" d="M 130.085938 143.703125 L 129.542969 133.925781 "/>
<path style="fill:none;stroke-width:1.2;stroke-linecap:butt;stroke-linejoin:miter;stroke:rgb(100%,0%,0%);stroke-opacity:1;stroke-miterlimit:10;" d="M 129.542969 133.925781 L 129.003906 124.144531 "/>
<path style=" stroke:none;fill-rule:nonzero;fill:rgb(100%,100%,100%);fill-opacity:1;" d="M 127.304688 118.519531 L 135.304688 118.519531 L 135.304688 129.519531 L 127.304688 129.519531 Z M 127.304688 118.519531 "/>
<g style="fill:rgb(100%,0%,0%);fill-opacity:1;">
  <use xlink:href="#glyph0-3" x="127.304688" y="127.182617"/>
</g>
<path style=" stroke:none;fill-rule:nonzero;fill:rgb(100%,100%,100%);fill-opacity:1;" d="M 184.675781 157.871094 L 190.675781 157.871094 L 190.675781 168.871094 L 184.675781 168.871094 Z M 184.675781 157.871094 "/>
<g style="fill:rgb(80%,80%,0%);fill-opacity:1;">
  <use xlink:href="#glyph0-4" x="184.675781" y="166.53418"/>
</g>
<path style="fill:none;stroke-width:1.2;stroke-linecap:butt;stroke-linejoin:miter;stroke:rgb(0%,0%,0%);stroke-opacity:1;stroke-miterlimit:10;" d="M 231.53125 124.253906 L 250.132812 130.394531 "/>
<path style="fill:none;stroke-width:1.2;stroke-linecap:butt;stroke-linejoin:miter;stroke:rgb(0%,0%,0%);stroke-opacity:1;stroke-miterlimit:10;" d="M 231.945312 129.246094 L 246.828125 134.15625 "/>
<path style="fill:none;stroke-width:1.2;stroke-linecap:butt;stroke-linejoin:miter;stroke:rgb(0%,0%,0%);stroke-opacity:1;stroke-miterlimit:10;" d="M 250.132812 130.394531 L 264.75 117.355469 "/>
</g>
</svg>

<svg xmlns="http://www.w3.org/2000/svg" xmlns:xlink="http://www.w3.org/1999/xlink" width="300pt" height="300pt" viewBox="0 0 300 300"><defs><symbol overflow="visible"><path d="M.453 1.594v-7.938h4.5v7.938zm.5-.5h3.5v-6.938h-3.5zm0 0"/></symbol><symbol overflow="visible" id="a"><path d="M.89-6.563H2.08l2.906 5.485v-5.484h.86V0H4.656L1.75-5.484V0H.89zm0 0"/></symbol><symbol overflow="visible" id="b"><path d="M.89-6.563h.876v2.688H5v-2.688h.89V0H5v-3.125H1.766V0H.89zm0 0"/></symbol><symbol overflow="visible" id="c"><path d="M3.547-5.953c-.65 0-1.164.242-1.547.72-.375.48-.563 1.13-.563 1.952 0 .835.188 1.49.563 1.967.383.48.898.72 1.547.72.644 0 1.156-.24 1.53-.72.376-.476.564-1.132.564-1.968 0-.822-.187-1.474-.562-1.954-.375-.477-.887-.72-1.53-.72zm0-.734c.914 0 1.648.312 2.203.937.55.617.828 1.438.828 2.47 0 1.042-.277 1.87-.828 2.483-.555.617-1.29.922-2.203.922-.93 0-1.668-.305-2.22-.922C.774-1.41.5-2.237.5-3.28c0-1.033.273-1.853.828-2.47.55-.625 1.29-.938 2.22-.938zm0 0"/></symbol><symbol overflow="visible" id="d"><path d="M4.813-6.344v.86c-.336-.157-.653-.27-.954-.344-.294-.082-.58-.125-.86-.125-.492 0-.867.094-1.125.28-.262.19-.39.454-.39.798 0 .293.085.512.265.656.176.15.504.267.984.36l.547.11c.658.125 1.142.352 1.454.672.32.312.485.734.485 1.265 0 .637-.216 1.122-.642 1.454-.43.325-1.055.485-1.875.485-.312 0-.648-.04-1-.11C1.36-.046 1-.147.625-.296v-.906c.352.2.703.35 1.047.453.35.105.695.156 1.03.156.5 0 .884-.097 1.157-.297.28-.196.42-.485.42-.86 0-.32-.1-.57-.296-.75-.2-.176-.523-.313-.968-.406l-.547-.11C1.81-3.148 1.33-3.36 1.03-3.64.74-3.923.595-4.313.595-4.813c0-.57.203-1.024.61-1.36.405-.344.968-.516 1.687-.516.313 0 .626.032.938.094.32.055.65.137.985.25zm0 0"/></symbol></defs><g><path fill="#fff" d="M0 0h300v300H0z"/><path d="M254.113 149.574l-14.617 13.04M249.586 147.438l-11.695 10.43M250.133 130.395l3.98 19.18M239.496 162.613l-18.6-6.14M220.895 156.473l-3.98-19.18M225.012 153.617l-3.188-15.344M216.914 137.293l-9.3-3.07" stroke-width="1.2" stroke="#000" stroke-miterlimit="10" fill="none"/><path d="M207.613 134.223l-9.3-3.07" stroke-width="1.2" stroke="#00f" stroke-miterlimit="10" fill="none"/><path d="M216.914 137.293l14.617-13.04" stroke-width="1.2" stroke="#000" stroke-miterlimit="10" fill="none"/><path d="M198.313 131.152l-7.31 6.52" stroke-width="1.2" stroke="#00f" stroke-miterlimit="10" fill="none"/><path d="M191.004 137.672l-7.31 6.52" stroke-width="1.2" stroke="#000" stroke-miterlimit="10" fill="none"/><path d="M191.313 125.652h14v11h-14zm0 0" fill="#fff"/><g fill="#00f"><use xlink:href="#a" x="191.313" y="134.315"/><use xlink:href="#b" x="198.29" y="134.315"/></g><path d="M183.695 144.19l-9.3-3.07" stroke-width="1.2" stroke="#000" stroke-miterlimit="10" fill="none"/><path d="M174.395 141.12l-9.3-3.07" stroke-width="1.2" stroke="#00f" stroke-miterlimit="10" fill="none"/><path d="M181.438 144.66l1.992 9.59" stroke-width="1.2" stroke="#000" stroke-miterlimit="10" fill="none"/><path d="M183.43 154.25l1.992 9.59" stroke-width="1.2" stroke="#cc0" stroke-miterlimit="10" fill="none"/><path d="M185.95 143.723l1.99 9.59" stroke-width="1.2" stroke="#000" stroke-miterlimit="10" fill="none"/><path d="M187.94 153.313l1.994 9.59" stroke-width="1.2" stroke="#cc0" stroke-miterlimit="10" fill="none"/><path d="M150.477 151.09l16.918-10.46-4.602-5.157zm0 0"/><path d="M158.094 132.55h14v11h-14zm0 0" fill="#fff"/><g fill="#00f"><use xlink:href="#a" x="158.094" y="141.214"/><use xlink:href="#b" x="165.071" y="141.214"/></g><path d="M150.477 151.09l5.402 18.828M132.387 143.578l18.09 7.512M155.88 169.918l-11.35 15.965M144.53 185.883l-19.557 1.078M124.973 186.96l-13.04-14.616M111.934 172.344l1.648-9.653" stroke-width="1.2" stroke="#000" stroke-miterlimit="10" fill="none"/><path d="M113.582 162.69l1.652-9.655M115.234 153.035l-7.984-5.676" stroke-width="1.2" stroke="#00f" stroke-miterlimit="10" fill="none"/><path d="M107.25 147.36l-7.98-5.673" stroke-width="1.2" stroke="#000" stroke-miterlimit="10" fill="none"/><path d="M115.234 153.035l8.575-4.73" stroke-width="1.2" stroke="#00f" stroke-miterlimit="10" fill="none"/><path d="M123.81 148.305l8.577-4.727" stroke-width="1.2" stroke="#000" stroke-miterlimit="10" fill="none"/><path d="M112.234 147.535h7v11h-7zm0 0" fill="#fff"/><use xlink:href="#a" x="112.234" y="156.198" fill="#00f"/><path d="M99.27 141.688l-17.813 8.148M81.457 149.836l-7.984-5.676" stroke-width="1.2" stroke="#000" stroke-miterlimit="10" fill="none"/><path d="M73.473 144.16l-7.98-5.672" stroke-width="1.2" stroke="#00f" stroke-miterlimit="10" fill="none"/><path d="M79.164 149.617l-.926 9.754" stroke-width="1.2" stroke="#000" stroke-miterlimit="10" fill="none"/><path d="M78.238 159.37l-.922 9.75" stroke-width="1.2" stroke="#f00" stroke-miterlimit="10" fill="none"/><path d="M83.75 150.055l-.922 9.75" stroke-width="1.2" stroke="#000" stroke-miterlimit="10" fill="none"/><path d="M82.828 159.805l-.926 9.75" stroke-width="1.2" stroke="#f00" stroke-miterlimit="10" fill="none"/><path d="M65.492 138.488l-9.285 3.12" stroke-width="1.2" stroke="#00f" stroke-miterlimit="10" fill="none"/><path d="M56.207 141.61l-9.28 3.12" stroke-width="1.2" stroke="#000" stroke-miterlimit="10" fill="none"/><path d="M65.492 138.488l-.1-9.797" stroke-width="1.2" stroke="#00f" stroke-miterlimit="10" fill="none"/><path d="M65.39 128.69l-.1-9.792" stroke-width="1.2" stroke="#000" stroke-miterlimit="10" fill="none"/><path d="M62.492 132.988h7v11h-7zm0 0" fill="#fff"/><use xlink:href="#a" x="62.492" y="141.651" fill="#00f"/><path d="M46.926 144.73L35.25 129.004M35.25 129.004l11.352-15.965M65.29 118.898l-18.688-5.86" stroke-width="1.2" stroke="#000" stroke-miterlimit="10" fill="none"/><path d="M75.61 163.836h8v11h-8zm0 0" fill="#fff"/><use xlink:href="#c" x="75.609" y="172.499" fill="#f00"/><path d="M134.688 143.45l-.54-9.778" stroke-width="1.2" stroke="#000" stroke-miterlimit="10" fill="none"/><path d="M134.148 133.672l-.543-9.78" stroke-width="1.2" stroke="#f00" stroke-miterlimit="10" fill="none"/><path d="M130.086 143.703l-.543-9.777" stroke-width="1.2" stroke="#000" stroke-miterlimit="10" fill="none"/><path d="M129.543 133.926l-.54-9.78" stroke-width="1.2" stroke="#f00" stroke-miterlimit="10" fill="none"/><path d="M127.305 118.52h8v11h-8zm0 0" fill="#fff"/><use xlink:href="#c" x="127.305" y="127.183" fill="#f00"/><path d="M184.676 157.87h6v11h-6zm0 0" fill="#fff"/><use xlink:href="#d" x="184.676" y="166.534" fill="#cc0"/><path d="M231.53 124.254l18.603 6.14M231.945 129.246l14.883 4.91M250.133 130.395l14.617-13.04" stroke-width="1.2" stroke="#000" stroke-miterlimit="10" fill="none"/></g></svg>
